X: 20
T: Boil'd Goose with Snuff Sauce
%R: strathspey
B: "Twenty Four Country Dances with Figures for the Year 1810", Button & Whitaker, p.10 #2
F: http://www.vwml.org/browse/browse-collections-dance-tune-books/browse-button1810
Z: 2014 John Chambers <jc:trillian.mit.edu>
M: C
L: 1/8
K: F
% - - - - - - - - - - - - - - - - - - - - - - - - - - - - -
|:\
A<cc2 f<cc>B | A<cA<F E<GG2 |\
A<cc2 f<dd<f | e<c=B<c c2c2 :|
|:\
g<ee2 f<cc2 | d>ef>g e<cde |\
f<ac<f d<fG<B | A<cE<G F2f2 :|
% - - - - - - - - - - Dance description - - - - - - - - - -
%%begintext align
%%  1st & 2d Cu: set and hands across back again
%% lead down the mid: up again right & left :|:
%%endtext

%%sep 1 1 500
%%sep 1 1 500
